wilib/img/svg/personagem_002.svg

<svg xmlns="http://www.w3.org/2000/svg" xmlns:xlink="http://www.w3.org/1999/xlink" preserveAspectRatio="none" width="100" height="136" viewBox="0 0 100 136"><defs><radialGradient id="a" gradientUnits="userSpaceOnUse" cx="0" cy="0" r="242.125" fx="0" fy="0" gradientTransform="translate(557.55 187.25)" spreadMethod="pad"><stop offset="0%" stop-color="#6593F5"/><stop offset="100%" stop-color="#092C66"/></radialGradient><linearGradient id="b" gradientUnits="userSpaceOnUse" x1="472.438" y1="128.188" x2="437.663" y2="260.012"><stop offset="0%" stop-color="#C0B5B3"/><stop offset="46.275%" stop-color="#E6E8E7"/></linearGradient><linearGradient id="c" gradientUnits="userSpaceOnUse" x1="418.313" y1="142.6" x2="369.587" y2="324.2"><stop offset="0%" stop-color="#12600C"/><stop offset="100%" stop-color="#073302"/></linearGradient><linearGradient id="d" gradientUnits="userSpaceOnUse" x1="434.45" y1="124.125" x2="428.55" y2="146.075"><stop offset="0%" stop-color="#12600C"/><stop offset="100%" stop-color="#073302"/></linearGradient><radialGradient id="e" gradientUnits="userSpaceOnUse" cx="0" cy="0" r="228.962" fx="0" fy="0" gradientTransform="translate(562.65 216.35)" spreadMethod="pad"><stop offset="0%" stop-color="#6593F5"/><stop offset="100%" stop-color="#092C66"/></radialGradient><linearGradient id="f" gradientUnits="userSpaceOnUse" x1="401.012" y1="114.863" x2="367.787" y2="240.938"><stop offset="0%" stop-color="#C0B5B3"/><stop offset="46.275%" stop-color="#E6E8E7"/></linearGradient><radialGradient id="g" gradientUnits="userSpaceOnUse" cx="0" cy="0" r="149.875" fx="0" fy="0" gradientTransform="translate(491.4 -9.7)" spreadMethod="pad"><stop offset="15.294%" stop-color="#EAC79D"/><stop offset="100%" stop-color="#923B10"/></radialGradient><radialGradient id="h" gradientUnits="userSpaceOnUse" cx="0" cy="0" r="163.55" fx="0" fy="0" gradientTransform="translate(493.6 -75.15)" spreadMethod="pad"><stop offset="2.353%" stop-color="#55504C"/><stop offset="67.843%" stop-color="#292522"/></radialGradient><g id="i"><path fill="url(#a)" d="M371.05 341.3q4.85 2.1 9.9 4 1.65.65 3.1 1.2 1.95.7 3.8 1.35 23.25 8.1 49.55 13.05 17.75 3.35 36.95 5.3 54.45 3.45 90.2-5.3 37.95-9.2 54.8-32.05 22.75-21.6 6.55-100.9-12.95-61.55-59.05-94.25l-26 97.2-62.65-3.85 36.5 15.45-5.1 3.35 5.1 3.2-143.65 92.25z"/><path fill="url(#b)" d="M469.6 164L458 130.5l-30.55 15.35L415 254q45.6-60.75 95.25-115.85L469.6 164z"/><path fill="url(#c)" d="M427.45 145.85l-13.8-4.4-48.05 99q-1.3 35-.15 74.9.05 3.9.2 7.85 24.1-35.5 49.35-69.2l12.45-108.15z"/><path fill="url(#d)" d="M445.2 129.35q-6.85-1.05-13.25-2.8-11.1-2.95-21.8-8.75l3.5 23.65 13.8 4.4L458 130.5q-6.55-.3-12.8-1.15z"/><path fill="url(#e)" d="M336.6 190.9l31.9-83.25q-5.4 1.7-10.6 4-19.5 8.95-35.7 27.55-42.1 50.45-38.65 115.95-2.5 33.3 29 51.55 22.15 17.75 49.1 30.45L326.4 201.1l34.9-2.95-24.7-7.25m216.1-66.15q-4.45-2.55-19.65-11.4-11.55 12.2-22.8 24.8Q460.6 193.25 415 254q-25.25 33.7-49.35 69.2-.15-3.95-.2-7.85l-3.65 21.8q2.1 1 4.4 2.05l143.4-93.35 5.1-3.35-36.5-15.45-6.4-2.7 64.7 2.9 26.65-96.1q-5-3.35-10.45-6.4z"/><path fill="#1A4CAD" d="M383.9 99.75l-12.4 8.15q-.65-.35-1.4-.75l-1.6.5-31.9 83.25 24.7 7.25-34.9 2.95 35.25 136.05h.15l3.65-21.8q-1.15-39.9.15-74.9 2.25-66.25 13.1-114.95 2.45-11.2 7.15-24-1-.9-1.95-1.75z"/><path fill="#FFF" d="M378.7 125.5l6.6 10.15 21.75-19.1q-11.05-6.1-21.05-14.9-.05-.1-.15-.15-4.7 12.8-7.15 24m154.35-12.15q-1.75-1-3.55-2.1-.3.2-.65.4-.35.25-.65.45-10.55 6.7-22.75 11.2-5 1.9-10.25 3.25-.5.15-1.1.3l-1.95.5q-1 .25-1.95.45-12.8 2.75-26.7 2.75-2.75 0-5.5-.05l11.6 33.5 40.65-25.85q11.25-12.6 22.8-24.8z"/><path fill="url(#f)" d="M385.3 135.65l-6.6-10.15q-10.85 48.7-13.1 114.95l48.05-99-3.5-23.65q-1.3-.25-3.1-1.25l-21.75 19.1z"/><path fill="#05245B" d="M564.9 125.1q-3.65-2.4-7.4-4.55-6.6-3.9-22.25-13.4-2.8 2.15-5.75 4.1 1.8 1.1 3.55 2.1 15.2 8.85 19.65 11.4 5.45 3.05 10.45 6.4l-26.65 96.1-64.7-2.9 6.4 2.7 62.65 3.85 26-97.2q46.1 32.7 59.05 94.25 16.2 79.3-6.55 100.9-16.85 22.85-54.8 32.05-35.75 8.75-90.2 5.3-19.2-1.95-36.95-5.3-26.3-4.95-49.55-13.05-1.85-.65-3.8-1.35-1.45-.55-3.1-1.2-5.05-1.9-9.9-4l143.65-92.25-5.1-3.2-143.4 93.35q-2.3-1.05-4.4-2.05h-.15q-26.95-12.7-49.1-30.45-31.5-18.25-29-51.55-3.45-65.5 38.65-115.95 16.2-18.6 35.7-27.55 5.2-2.3 10.6-4l1.6-.5q.75.4 1.4.75l12.4-8.15q-.65-.6-1.2-1.15-.7-.6-1.25-1.15h-.1q-21.55 5.85-28.05 9-19.85 9.35-36.35 28.7-43.65 53.2-40.2 122.1-2.45 35.25 30.2 54.45Q331 331.25 360.5 345q20.05 9.3 42.75 15.9 33.15 9.75 71.8 13.6 76.25 4.75 117.25-13.6 21.6-9.65 33.35-25.8 23.55-22.8 6.8-106.25-14-66.75-63.9-101.35-1.85-1.2-3.65-2.4z"/><path d="M567.75 20.8V15q-14.1 4.05-19.65 18.15h-15.25V39h15.25q5.55-14.1 19.65-18.2m23.6-13.15q-.05-1.65-.2-3.35-3.65 34.05-14.7 55.75h-8.7v5.85h8.7q11.4-22.55 14.9-58.25m-225.7-57.5l-.2-.2q-1.3-1.3-2.2-2.7-.05-.05-.05-.15-.1 0-.1-.05-.35-.6-.55-1.1-.6.95-1.15 1.95.2 2.5 1.7 4.95 0 .05.1.05 0 .1.05.15.9 1.4 2.2 2.7.05.1.2.25 7.15 7.3 26.25 14.65 71.8 14.5 132.9-3.4 7.05-4.5 8.1 1.5 1.55-13.45-8.1-7.3-61.1 17.85-132.9 3.4-19.1-7.35-26.25-14.7z"/><path fill="url(#g)" d="M391.9-29.35Q372.8-36.7 365.65-44q-.15-.15-.2-.25-15.7 25.65-15.7 57.7 0 21.4 7.2 39.8 6.75 18.35 20.4 34 .75.85 1.6 1.8 1.9 2.15 4 4.15l.1.1.35.35q1.95 1.95 4 3.8v.05q6.2 5.65 12.95 10.25 4.7 3.35 9.75 6.1 4.2 2.35 8.55 4.2 17.65 7.65 38 8.65 3.2.15 6.5.15 21.3 0 39.75-7.1 23.7-11.1 34-20.5.9-.8 1.75-1.6.3-.3.65-.6l2.1-1.95q.7-.75 1.4-1.45 16.7-16.85 24.95-37.15V20.8q-14.1 4.1-19.65 18.2h-15.25v-64q.5-3.9.05-6.25-1.05-6-8.1-1.5-61.1 17.9-132.9 3.4z"/><path fill="#461D00" d="M349.8-16.35L347-1.55q-.9 7.55-.9 15.45 0 3.2.15 6.35.8 11.6 4.1 23.6.35 1.45.8 3 .65 2.25 1.35 4.25 9.15 27.3 29.1 46.35 1.15 1.05 2.4 2.25.95.8 1.95 1.65 8.65 7.5 19.2 13.6 1.1.65 2.25 1.3 1.6.85 3.2 1.65 10.55 5.5 21.35 8.65 6.4 1.75 13.25 2.8 6.25.85 12.8 1.15 2.75.05 5.5.05 13.9 0 26.7-2.75.95-.2 1.95-.45l1.95-.5q.6-.15 1.1-.3 5.25-1.35 10.25-3.25 12.2-4.5 22.75-11.2.3-.2.65-.45.35-.2.65-.4 2.95-1.95 5.75-4.1 14.3-11 24.95-26.75 2.5-3.75 4.85-7.85 1.9-3.35 3.65-6.65h-.95V57.95q-8.3 19.25-24.45 35.25l-1.9 1.9-2.1 1.95q-.35.3-.65.6-.85.8-1.75 1.6-10.3 9.4-34 20.5-18.45 7.1-39.75 7.1-3.3 0-6.5-.15-20.35-1-38-8.65-4.35-1.85-8.55-4.2-5.05-2.75-9.75-6.1-6.75-4.6-12.95-10.25v-.05q-2.05-1.85-4-3.8l-.35-.35-.1-.1q-2.1-2-4-4.15-.85-.95-1.6-1.8-13.65-15.65-20.4-34-7.2-18.4-7.2-39.8 0-32.05 15.7-57.7-1.3-1.3-2.2-2.7-.05-.05-.05-.15-.75 1.2-1.4 2.35-4 7-7.05 14.05l-4.95 14.35z"/><path fill="url(#h)" d="M365.45-50.05l.2.2q7.15 7.35 26.25 14.7 71.8 14.45 132.9-3.4 9.65-6.15 8.1 7.3.45 2.35-.05 6.25v58.15h15.25q5.55-14.1 19.65-18.15V60.05h8.7q11.05-21.7 14.7-55.75-4.1-47.45-35.75-82.35Q519.1-118 467.8-118t-87.65 39.95q-10.25 11.35-17.6 24 .2.5.55 1.1 0 .05.1.05 0 .1.05.15.9 1.4 2.2 2.7z"/></g><path fill="#CE7F54" d="M545.55 75q-3.2 2.35-6.4 4.45-65.25 43.55-125 13.4-45.6-30-54.2-93 7.05 68.7 52.7 98.7 62.65 31.6 126.6-15.2.7-.65 1.4-1.4 2.7-3.05 4.9-6.95z" id="j"/></defs><use xlink:href="#i" transform="matrix(.27556 0 0 .2756 -76.2 32.5)"/><use xlink:href="#j" transform="matrix(.27556 0 0 .2756 -76.2 32.5)"/></svg>

<svg xmlns="http://www.w3.org/2000/svg" version="1.1" xmlns:xlink="http://www.w3.org/1999/xlink" preserveAspectRatio="none" x="0px" y="0px" width="100px" height="136px" viewBox="0 0 100 136">
<defs>
<radialGradient id="Gradient_1" gradientUnits="userSpaceOnUse" cx="0" cy="0" r="242.125" fx="0" fy="0" gradientTransform="matrix( 1, 0, 0, 1, 557.55,187.25) " spreadMethod="pad">
<stop  offset="0%" stop-color="#6593F5"/>

<stop  offset="100%" stop-color="#092C66"/>
</radialGradient>

<linearGradient id="Gradient_2" gradientUnits="userSpaceOnUse" x1="472.4375" y1="128.1875" x2="437.6625" y2="260.0125" spreadMethod="pad">
<stop  offset="0%" stop-color="#C0B5B3"/>

<stop  offset="46.27450980392157%" stop-color="#E6E8E7"/>
</linearGradient>

<linearGradient id="Gradient_3" gradientUnits="userSpaceOnUse" x1="418.3125" y1="142.6" x2="369.5875" y2="324.20000000000005" spreadMethod="pad">
<stop  offset="0%" stop-color="#12600C"/>

<stop  offset="100%" stop-color="#073302"/>
</linearGradient>

<linearGradient id="Gradient_4" gradientUnits="userSpaceOnUse" x1="434.45" y1="124.125" x2="428.55" y2="146.075" spreadMethod="pad">
<stop  offset="0%" stop-color="#12600C"/>

<stop  offset="100%" stop-color="#073302"/>
</linearGradient>

<radialGradient id="Gradient_5" gradientUnits="userSpaceOnUse" cx="0" cy="0" r="228.96249999999998" fx="0" fy="0" gradientTransform="matrix( 1.0000000000000002, 0, 0, 1.0000000000000002, 562.65,216.35) " spreadMethod="pad">
<stop  offset="0%" stop-color="#6593F5"/>

<stop  offset="100%" stop-color="#092C66"/>
</radialGradient>

<linearGradient id="Gradient_6" gradientUnits="userSpaceOnUse" x1="401.0125" y1="114.86250000000001" x2="367.78749999999997" y2="240.9375" spreadMethod="pad">
<stop  offset="0%" stop-color="#C0B5B3"/>

<stop  offset="46.27450980392157%" stop-color="#E6E8E7"/>
</linearGradient>

<radialGradient id="Gradient_7" gradientUnits="userSpaceOnUse" cx="0" cy="0" r="149.875" fx="0" fy="0" gradientTransform="matrix( 1, 0, 0, 1, 491.4,-9.7) " spreadMethod="pad">
<stop  offset="15.294117647058824%" stop-color="#EAC79D"/>

<stop  offset="100%" stop-color="#923B10"/>
</radialGradient>

<radialGradient id="Gradient_8" gradientUnits="userSpaceOnUse" cx="0" cy="0" r="163.55000000000007" fx="0" fy="0" gradientTransform="matrix( 0.9999999999999996, 0, 0, 0.9999999999999996, 493.6,-75.15) " spreadMethod="pad">
<stop  offset="2.3529411764705883%" stop-color="#55504C"/>

<stop  offset="67.84313725490196%" stop-color="#292522"/>
</radialGradient>

<g id="Layer0_0_FILL">
<path fill="url(#Gradient_1)" stroke="none" d="
M 371.05 341.3
Q 375.9 343.4 380.95 345.3 382.6 345.95 384.05 346.5 386 347.2 387.85 347.85 411.1 355.95 437.4 360.9 455.15 364.25 474.35 366.2 528.8 369.65 564.55 360.9 602.5 351.7 619.35 328.85 642.1 307.25 625.9 227.95 612.95 166.4 566.85 133.7
L 540.85 230.9 478.2 227.05 514.7 242.5 509.6 245.85 514.7 249.05 371.05 341.3 Z"/>

<path fill="url(#Gradient_2)" stroke="none" d="
M 469.6 164
L 458 130.5 427.45 145.85 415 254
Q 460.6 193.25 510.25 138.15
L 469.6 164 Z"/>

<path fill="url(#Gradient_3)" stroke="none" d="
M 427.45 145.85
L 413.65 141.45 365.6 240.45
Q 364.3 275.45 365.45 315.35 365.5 319.25 365.65 323.2 389.75 287.7 415 254
L 427.45 145.85 Z"/>

<path fill="url(#Gradient_4)" stroke="none" d="
M 445.2 129.35
Q 438.35 128.3 431.95 126.55 420.85 123.6 410.15 117.8
L 413.65 141.45 427.45 145.85 458 130.5
Q 451.45 130.2 445.2 129.35 Z"/>

<path fill="url(#Gradient_5)" stroke="none" d="
M 336.6 190.9
L 368.5 107.65
Q 363.1 109.35 357.9 111.65 338.4 120.6 322.2 139.2 280.1 189.65 283.55 255.15 281.05 288.45 312.55 306.7 334.7 324.45 361.65 337.15
L 326.4 201.1 361.3 198.15 336.6 190.9
M 552.7 124.75
Q 548.25 122.2 533.05 113.35 521.5 125.55 510.25 138.15 460.6 193.25 415 254 389.75 287.7 365.65 323.2 365.5 319.25 365.45 315.35
L 361.8 337.15
Q 363.9 338.15 366.2 339.2
L 509.6 245.85 514.7 242.5 478.2 227.05 471.8 224.35 536.5 227.25 563.15 131.15
Q 558.15 127.8 552.7 124.75 Z"/>

<path fill="#1A4CAD" stroke="none" d="
M 383.9 99.75
L 371.5 107.9
Q 370.85 107.55 370.1 107.15 369.3 107.4 368.5 107.65
L 336.6 190.9 361.3 198.15 326.4 201.1 361.65 337.15
Q 361.75 337.15 361.8 337.15
L 365.45 315.35
Q 364.3 275.45 365.6 240.45 367.85 174.2 378.7 125.5 381.15 114.3 385.85 101.5 384.85 100.6 383.9 99.75 Z"/>

<path fill="#FFFFFF" stroke="none" d="
M 378.7 125.5
L 385.3 135.65 407.05 116.55
Q 396 110.45 386 101.65 385.95 101.55 385.85 101.5 381.15 114.3 378.7 125.5
M 533.05 113.35
Q 531.3 112.35 529.5 111.25 529.2 111.45 528.85 111.65 528.5 111.9 528.2 112.1 517.65 118.8 505.45 123.3 500.45 125.2 495.2 126.55 494.7 126.7 494.1 126.85
L 492.15 127.35
Q 491.15 127.6 490.2 127.8 477.4 130.55 463.5 130.55 460.75 130.55 458 130.5
L 469.6 164 510.25 138.15
Q 521.5 125.55 533.05 113.35 Z"/>

<path fill="url(#Gradient_6)" stroke="none" d="
M 385.3 135.65
L 378.7 125.5
Q 367.85 174.2 365.6 240.45
L 413.65 141.45 410.15 117.8
Q 408.85 117.55 407.05 116.55
L 385.3 135.65 Z"/>

<path fill="#05245B" stroke="none" d="
M 564.9 125.1
Q 561.25 122.7 557.5 120.55 550.9 116.65 535.25 107.15 532.45 109.3 529.5 111.25 531.3 112.35 533.05 113.35 548.25 122.2 552.7 124.75 558.15 127.8 563.15 131.15
L 536.5 227.25 471.8 224.35 478.2 227.05 540.85 230.9 566.85 133.7
Q 612.95 166.4 625.9 227.95 642.1 307.25 619.35 328.85 602.5 351.7 564.55 360.9 528.8 369.65 474.35 366.2 455.15 364.25 437.4 360.9 411.1 355.95 387.85 347.85 386 347.2 384.05 346.5 382.6 345.95 380.95 345.3 375.9 343.4 371.05 341.3
L 514.7 249.05 509.6 245.85 366.2 339.2
Q 363.9 338.15 361.8 337.15 361.75 337.15 361.65 337.15 334.7 324.45 312.55 306.7 281.05 288.45 283.55 255.15 280.1 189.65 322.2 139.2 338.4 120.6 357.9 111.65 363.1 109.35 368.5 107.65 369.3 107.4 370.1 107.15 370.85 107.55 371.5 107.9
L 383.9 99.75
Q 383.25 99.15 382.7 98.6 382 98 381.45 97.45
L 381.35 97.45
Q 359.8 103.3 353.3 106.45 333.45 115.8 316.95 135.15 273.3 188.35 276.75 257.25 274.3 292.5 306.95 311.7 331 331.25 360.5 345 380.55 354.3 403.25 360.9 436.4 370.65 475.05 374.5 551.3 379.25 592.3 360.9 613.9 351.25 625.65 335.1 649.2 312.3 632.45 228.85 618.45 162.1 568.55 127.5 566.7 126.3 564.9 125.1 Z"/>

<path fill="#000000" stroke="none" d="
M 567.75 20.8
L 567.75 15
Q 553.65 19.05 548.1 33.15
L 532.85 33.15 532.85 39 548.1 39
Q 553.65 24.9 567.75 20.8
M 591.35 7.65
Q 591.3 6 591.15 4.3 587.5 38.35 576.45 60.05
L 567.75 60.05 567.75 65.9 568.7 65.9 576.45 65.9
Q 587.85 43.35 591.35 7.65
M 365.65 -49.85
Q 365.5 -50 365.45 -50.05 364.15 -51.35 363.25 -52.75 363.2 -52.8 363.2 -52.9 363.1 -52.9 363.1 -52.95 362.75 -53.55 362.55 -54.05 361.95 -53.1 361.4 -52.1 361.6 -49.6 363.1 -47.15 363.1 -47.1 363.2 -47.1 363.2 -47 363.25 -46.95 364.15 -45.55 365.45 -44.25 365.5 -44.15 365.65 -44 372.8 -36.7 391.9 -29.35 463.7 -14.85 524.8 -32.75 531.85 -37.25 532.9 -31.25 534.45 -44.7 524.8 -38.55 463.7 -20.7 391.9 -35.15 372.8 -42.5 365.65 -49.85 Z"/>

<path fill="url(#Gradient_7)" stroke="none" d="
M 391.9 -29.35
Q 372.8 -36.7 365.65 -44 365.5 -44.15 365.45 -44.25 349.75 -18.6 349.75 13.45 349.75 34.85 356.95 53.25 363.7 71.6 377.35 87.25 378.1 88.1 378.95 89.05 380.85 91.2 382.95 93.2
L 383.05 93.3
Q 383.2 93.45 383.4 93.65 385.35 95.6 387.4 97.45
L 387.4 97.5
Q 393.6 103.15 400.35 107.75 405.05 111.1 410.1 113.85 414.3 116.2 418.65 118.05 436.3 125.7 456.65 126.7 459.85 126.85 463.15 126.85 484.45 126.85 502.9 119.75 526.6 108.65 536.9 99.25 537.8 98.45 538.65 97.65 538.95 97.35 539.3 97.05
L 541.4 95.1
Q 542.1 94.35 542.8 93.65 559.5 76.8 567.75 56.5
L 567.75 20.8
Q 553.65 24.9 548.1 39
L 532.85 39 532.85 33.15 532.85 -25
Q 533.35 -28.9 532.9 -31.25 531.85 -37.25 524.8 -32.75 463.7 -14.85 391.9 -29.35 Z"/>

<path fill="#461D00" stroke="none" d="
M 349.8 -16.35
L 347 -1.55
Q 346.1 6 346.1 13.9 346.1 17.1 346.25 20.25 347.05 31.85 350.35 43.85 350.7 45.3 351.15 46.85 351.8 49.1 352.5 51.1 361.65 78.4 381.6 97.45 382.75 98.5 384 99.7 384.95 100.5 385.95 101.35 394.6 108.85 405.15 114.95 406.25 115.6 407.4 116.25 409 117.1 410.6 117.9 421.15 123.4 431.95 126.55 438.35 128.3 445.2 129.35 451.45 130.2 458 130.5 460.75 130.55 463.5 130.55 477.4 130.55 490.2 127.8 491.15 127.6 492.15 127.35
L 494.1 126.85
Q 494.7 126.7 495.2 126.55 500.45 125.2 505.45 123.3 517.65 118.8 528.2 112.1 528.5 111.9 528.85 111.65 529.2 111.45 529.5 111.25 532.45 109.3 535.25 107.15 549.55 96.15 560.2 80.4 562.7 76.65 565.05 72.55 566.95 69.2 568.7 65.9
L 567.75 65.9 567.75 60.05 567.75 57.95
Q 559.45 77.2 543.3 93.2 542.35 94.15 541.4 95.1
L 539.3 97.05
Q 538.95 97.35 538.65 97.65 537.8 98.45 536.9 99.25 526.6 108.65 502.9 119.75 484.45 126.85 463.15 126.85 459.85 126.85 456.65 126.7 436.3 125.7 418.65 118.05 414.3 116.2 410.1 113.85 405.05 111.1 400.35 107.75 393.6 103.15 387.4 97.5
L 387.4 97.45
Q 385.35 95.6 383.4 93.65 383.2 93.45 383.05 93.3
L 382.95 93.2
Q 380.85 91.2 378.95 89.05 378.1 88.1 377.35 87.25 363.7 71.6 356.95 53.25 349.75 34.85 349.75 13.45 349.75 -18.6 365.45 -44.25 364.15 -45.55 363.25 -46.95 363.2 -47 363.2 -47.1 362.45 -45.9 361.8 -44.75 357.8 -37.75 354.75 -30.7
L 349.8 -16.35 Z"/>

<path fill="url(#Gradient_8)" stroke="none" d="
M 365.45 -50.05
Q 365.5 -50 365.65 -49.85 372.8 -42.5 391.9 -35.15 463.7 -20.7 524.8 -38.55 534.45 -44.7 532.9 -31.25 533.35 -28.9 532.85 -25
L 532.85 33.15 548.1 33.15
Q 553.65 19.05 567.75 15
L 567.75 20.8 567.75 56.5 567.75 57.95 567.75 60.05 576.45 60.05
Q 587.5 38.35 591.15 4.3 587.05 -43.15 555.4 -78.05 519.1 -118 467.8 -118 416.5 -118 380.15 -78.05 369.9 -66.7 362.55 -54.05 362.75 -53.55 363.1 -52.95 363.1 -52.9 363.2 -52.9 363.2 -52.8 363.25 -52.75 364.15 -51.35 365.45 -50.05 Z"/>
</g>

<g id="Layer0_0_MEMBER_0_FILL">
<path fill="#CE7F54" stroke="none" d="
M 545.55 75
Q 542.35 77.35 539.15 79.45 473.9 123 414.15 92.85 368.55 62.85 359.95 -0.15 367 68.55 412.65 98.55 475.3 130.15 539.25 83.35 539.95 82.7 540.65 81.95 543.35 78.9 545.55 75 Z"/>
</g>
</defs>

<g transform="matrix( 0.2755584716796875, 0, 0, 0.2755889892578125, -76.2,32.5) ">
<use xlink:href="#Layer0_0_FILL"/>
</g>

<g transform="matrix( 0.2755584716796875, 0, 0, 0.2755889892578125, -76.2,32.5) ">
<use xlink:href="#Layer0_0_MEMBER_0_FILL"/>
</g>
</svg>
